svg/u1f4b7.svg

<svg viewBox="0 0 128 128" xmlns="http://www.w3.org/2000/svg">
  <g id="Layer_1">
    <g>
      <path d="M119.65,102.09H8.35c-2.4,0-4.35-1.95-4.35-4.35V30.28c0-2.41,1.95-4.37,4.37-4.37h111.27 c2.41,0,4.37,1.95,4.37,4.37v67.46C124,100.14,122.05,102.09,119.65,102.09z" fill="#7E57C2"/>
      <path d="M119.78,89.91H8.22C5.89,89.91,4,88.02,4,85.69V30.28c0-2.41,1.95-4.37,4.37-4.37h111.27 c2.41,0,4.37,1.95,4.37,4.37v55.41C124,88.02,122.11,89.91,119.78,89.91z" fill="#B39DDB"/>
      <path d="M106.45,33.1c0.86,5.4,5.14,9.68,10.54,10.54v28.54c-5.4,0.86-9.68,5.14-10.54,10.54H21.42 c-1.1-5.11-5.26-9.05-10.42-9.87V44.31c5.63-0.89,10.03-5.49,10.63-11.21H106.45 M108.29,31.1H19.69 c0.01,0.22,0.02,0.44,0.02,0.67c0,5.91-4.79,10.7-10.7,10.7v32.23c5.68,0,10.33,4.43,10.68,10.03h88.61 c0-5.91,4.79-10.7,10.7-10.7V41.8C113.08,41.8,108.29,37.01,108.29,31.1L108.29,31.1z" fill="#5E35B1"/>
      <circle cx="84.78" cy="57.91" r="18.5" opacity="0.5" fill="#7E57C2"/>
      <rect height="76.18" fill="#FFECB3" width="22.01" x="53" y="25.91"/>
      <rect height="12.18" fill="#FFC06C" width="22.01" x="53" y="89.91"/>
      <path d="M32.28,60.34c-0.47,0-0.85,0.39-0.83,0.86l0.17,4.68c0,1.96-0.3,3.62-0.9,4.97 c-0.25,0.56,0.13,1.2,0.75,1.2h16.21c0.46,0,0.83,0.38,0.83,0.84l-0.01,2.29c0,0.46-0.37,0.83-0.83,0.83H23.33 c-0.46,0-0.83-0.37-0.83-0.83v-2.29c0-0.46,0.37-0.83,0.83-0.83h0.96c0.09,0,0.19-0.01,0.28-0.04c0.61-0.2,1.11-0.81,1.5-1.84 c0.42-1.1,0.65-2.45,0.68-4.07v-0.2l-0.17-4.76c-0.02-0.45-0.38-0.8-0.83-0.8h-2.52c-0.46,0-0.83-0.37-0.83-0.83v-2.29 c0-0.46,0.37-0.83,0.83-0.83h2.34c0.47,0,0.85-0.39,0.83-0.86l-0.2-5.69c0-3.34,1.03-6.01,3.08-8.01c2.06-2,4.76-3,8.12-3 c3.19,0,5.72,0.89,7.58,2.67c1.68,1.6,2.6,3.69,2.77,6.26c0.03,0.47-0.36,0.86-0.83,0.86H43.8c-0.43,0-0.82-0.32-0.86-0.75 c-0.13-1.45-0.65-2.63-1.57-3.52c-1.07-1.04-2.53-1.57-4.39-1.57c-1.76,0-3.19,0.65-4.28,1.94c-1.09,1.3-1.64,2.99-1.64,5.1 l0.2,5.76c0.02,0.45,0.38,0.8,0.83,0.8h6.4c0.46,0,0.83,0.37,0.83,0.83v2.29c0,0.46-0.37,0.83-0.83,0.83H32.28z" fill="#FFFFFF"/>
    </g>
  </g>
</svg>

<svg viewBox="0 0 128 128" xmlns="http://www.w3.org/2000/svg">
  <defs/>
  <path d="M119.65,102.09 L8.35,102.09 C5.95,102.09 4,100.14 4,97.74 L4,30.28 C4,27.87 5.95,25.91 8.37,25.91 L119.64,25.91 C122.05,25.91 124.01,27.86 124.01,30.28 L124.01,97.74 C124,100.14 122.05,102.09 119.65,102.09 Z" fill="#7E57C2"/>
  <path d="M119.78,89.91 L8.22,89.91 C5.89,89.91 4,88.02 4,85.69 L4,30.28 C4,27.87 5.95,25.91 8.37,25.91 L119.64,25.91 C122.05,25.91 124.01,27.86 124.01,30.28 L124.01,85.69 C124,88.02 122.11,89.91 119.78,89.91 Z" fill="#B39DDB"/>
  <path d="M106.45,33.1 C107.31,38.5 111.59,42.78 116.99,43.64 L116.99,72.18 C111.59,73.04 107.31,77.32 106.45,82.72 L21.42,82.72 C20.32,77.61 16.16,73.67 11,72.85 L11,44.31 C16.63,43.42 21.03,38.82 21.63,33.1 L106.45,33.1 M108.29,31.1 L19.69,31.1 C19.7,31.32 19.71,31.54 19.71,31.77 C19.71,37.68 14.92,42.47 9.01,42.47 L9.01,74.7 C14.69,74.7 19.34,79.13 19.69,84.73 L108.3,84.73 C108.3,78.82 113.09,74.03 119,74.03 L119,41.8 C113.08,41.8 108.29,37.01 108.29,31.1 L108.29,31.1 Z" fill="#5E35B1"/>
  <path d="M103.28,57.91 A18.5 18.5 0 1 1 66.28,57.91 A18.5 18.5 0 1 1 103.28,57.91 Z" fill="#7E57C2" opacity="0.5"/>
  <path d="M53,25.91 L75.01,25.91 L75.01,102.09 L53,102.09 L53,25.91 Z" fill="#FFECB3"/>
  <path d="M53,89.91 L75.01,89.91 L75.01,102.09 L53,102.09 L53,89.91 Z" fill="#FFC06C"/>
  <path d="M32.28,60.34 C31.81,60.34 31.43,60.73 31.45,61.2 L31.62,65.88 C31.62,67.84 31.32,69.5 30.72,70.85 C30.47,71.41 30.85,72.05 31.47,72.05 L47.68,72.05 C48.14,72.05 48.51,72.43 48.51,72.89 L48.5,75.18 C48.5,75.64 48.13,76.01 47.67,76.01 L23.33,76.01 C22.87,76.01 22.5,75.64 22.5,75.18 L22.5,72.89 C22.5,72.43 22.87,72.06 23.33,72.06 L24.29,72.06 C24.38,72.06 24.48,72.05 24.57,72.02 C25.18,71.82 25.68,71.21 26.07,70.18 C26.49,69.08 26.72,67.73 26.75,66.11 L26.75,65.91 L26.58,61.15 C26.56,60.7 26.2,60.35 25.75,60.35 L23.23,60.35 C22.77,60.35 22.4,59.98 22.4,59.52 L22.4,57.23 C22.4,56.77 22.77,56.4 23.23,56.4 L25.57,56.4 C26.04,56.4 26.42,56.01 26.4,55.54 L26.2,49.85 C26.2,46.51 27.23,43.84 29.28,41.84 C31.34,39.84 34.04,38.84 37.4,38.84 C40.59,38.84 43.12,39.73 44.98,41.51 C46.66,43.11 47.58,45.2 47.75,47.77 C47.78,48.24 47.39,48.63 46.92,48.63 L43.8,48.63 C43.37,48.63 42.98,48.31 42.94,47.88 C42.81,46.43 42.29,45.25 41.37,44.36 C40.3,43.32 38.84,42.79 36.98,42.79 C35.22,42.79 33.79,43.44 32.7,44.73 C31.61,46.03 31.06,47.72 31.06,49.83 L31.26,55.59 C31.28,56.04 31.64,56.39 32.09,56.39 L38.49,56.39 C38.95,56.39 39.32,56.76 39.32,57.22 L39.32,59.51 C39.32,59.97 38.95,60.34 38.49,60.34 L32.28,60.34 Z" fill="#FFFFFF"/>
</svg>
